src/pos-icons/kettle-alert-outline.svg

<svg height="24" viewBox="0 0 24 24" width="24" xmlns="http://www.w3.org/2000/svg"><path d="m9.5 3c-4.7 0-8.5 2.7-8.5 6 0 1.2.5 2.3 1.4 3.3-.9 1.2-1.4 2.7-1.4 4.2v3.5c0 1.1.9 2 2 2h13c1.1 0 2-.9 2-2v-3.5c0-1.2-.3-2.4-1-3.5l2-2-3-3-2.1 2.1c-2.9-1.6-6.5-1.5-9.3.3-.4-.4-.6-.9-.6-1.4 0-1.8 2.5-3.3 5.5-3.3 1.4 0 2.8.4 3.8 1l2-2c-1.7-1.2-3.7-1.7-5.8-1.7m0 8c3.5 0 6.5 3 6.5 5.5v3.5h-13v-3.5c0-2.5 3-5.5 6.5-5.5m.5 1.5c-3 0-5 1.5-5 4.5v1h2v-1c0-1 0-3.5 3-4.5m11 .5v-6h2v6zm0 4v-2h2v2z"/></svg>

<?xml version="1.0" encoding="UTF-8"?><!DOCTYPE svg PUBLIC "-//W3C//DTD SVG 1.1//EN" "http://www.w3.org/Graphics/SVG/1.1/DTD/svg11.dtd"><svg xmlns="http://www.w3.org/2000/svg" xmlns:xlink="http://www.w3.org/1999/xlink" version="1.1" id="mdi-kettle-alert-outline" width="24" height="24" viewBox="0 0 24 24"><path d="M9.5 3C4.8 3 1 5.7 1 9C1 10.2 1.5 11.3 2.4 12.3C1.5 13.5 1 15 1 16.5V20C1 21.1 1.9 22 3 22H16C17.1 22 18 21.1 18 20V16.5C18 15.3 17.7 14.1 17 13L19 11L16 8L13.9 10.1C11 8.5 7.4 8.6 4.6 10.4C4.2 10 4 9.5 4 9C4 7.2 6.5 5.7 9.5 5.7C10.9 5.7 12.3 6.1 13.3 6.7L15.3 4.7C13.6 3.5 11.6 3 9.5 3M9.5 11C13 11 16 14 16 16.5V20H3V16.5C3 14 6 11 9.5 11M10 12.5C7 12.5 5 14 5 17V18H7V17C7 16 7 13.5 10 12.5M21 13V7H23V13H21M21 17V15H23V17H21Z" /></svg>
